web/packages/design/src/ResourceIcon/assets/oasisopen.svg

<svg width="72" height="72" viewBox="0 0 72 72" fill="none" xmlns="http://www.w3.org/2000/svg">
<path d="M12 0.240428C12 0.160714 12 0.0797141 12.0026 0H23.988C23.9828 0.0797141 23.9828 0.160714 23.9828 0.240428C23.9806 2.96668 24.9101 5.61182 26.6173 7.73741C27.7374 9.14204 29.1596 10.2762 30.7783 11.0557C32.3969 11.8352 34.1704 12.24 35.967 12.24C37.9881 12.2389 40.0013 12.4938 41.9584 12.9985C52.2826 15.669 59.9339 25.0778 59.9339 36.2404C59.9392 41.0588 58.4871 45.7661 55.7682 49.7442C52.7276 47.0534 49.1711 45.0096 45.3154 43.7374C47.0228 41.6114 47.9523 38.9658 47.9498 36.2391C47.9487 34.1344 47.3947 32.0669 46.3432 30.2436C45.2917 28.4204 43.7796 26.9055 41.9584 25.8505C40.1944 24.8284 38.1475 24.2395 35.967 24.2395C30.1326 24.2441 24.4989 22.1097 20.1321 18.2404C18.6279 16.9127 17.2955 15.4023 16.1657 13.7443C13.539 9.89612 12 5.24442 12 0.240428Z" fill="url(#paint0_linear_7996_40361)"/>
<path d="M29.9743 59.481C19.65 56.8106 12 47.403 12 36.2405C11.9937 31.4219 13.4449 26.7141 16.1632 22.7354C19.204 25.4259 22.7604 27.4696 26.616 28.7422C24.909 30.8683 23.98 33.514 23.9829 36.2405C23.9839 38.3452 24.5379 40.4127 25.5894 42.2359C26.6409 44.0592 28.153 45.5741 29.9743 46.629C31.7941 47.6858 33.8613 48.2416 35.9657 48.24C41.8011 48.2352 47.4359 50.3701 51.8031 54.2405C53.3072 55.5678 54.6396 57.0778 55.7695 58.7353C58.4414 62.6464 59.89 67.2636 59.9314 72H47.9485C47.8965 69.3563 46.9706 66.8042 45.3154 64.7422C44.1953 63.3375 42.773 62.2033 41.1544 61.4238C39.5357 60.6443 37.7623 60.2396 35.9657 60.2396C33.8983 60.2396 31.89 59.976 29.9743 59.481Z" fill="url(#paint1_linear_7996_40361)"/>
<defs>
<linearGradient id="paint0_linear_7996_40361" x1="60" y1="36" x2="12" y2="35.9999" gradientUnits="userSpaceOnUse">
<stop stop-color="#2148E4"/>
<stop offset="1" stop-color="#80E8FF"/>
</linearGradient>
<linearGradient id="paint1_linear_7996_40361" x1="60" y1="36" x2="12" y2="35.9999" gradientUnits="userSpaceOnUse">
<stop stop-color="#2148E4"/>
<stop offset="1" stop-color="#80E8FF"/>
</linearGradient>
</defs>
</svg>

<svg xmlns="http://www.w3.org/2000/svg" width="72" height="72" fill="none" viewBox="0 0 72 72"><path fill="url(#paint0_linear_7996_40361)" d="M12 .24q0-.12.003-.24h11.985q-.006.12-.005.24a11.96 11.96 0 0 0 2.634 7.497 11.96 11.96 0 0 0 9.35 4.503 24 24 0 0 1 5.991.758c10.325 2.671 17.976 12.08 17.976 23.242a23.9 23.9 0 0 1-4.166 13.504 29.9 29.9 0 0 0-10.453-6.007 11.96 11.96 0 0 0 2.635-7.498 12.01 12.01 0 0 0-5.992-10.388 11.9 11.9 0 0 0-5.991-1.611 23.85 23.85 0 0 1-15.835-6 24 24 0 0 1-3.966-4.496A23.9 23.9 0 0 1 12 .24"/><path fill="url(#paint1_linear_7996_40361)" d="M29.974 59.481C19.65 56.811 12 47.403 12 36.241a23.9 23.9 0 0 1 4.163-13.506 29.9 29.9 0 0 0 10.453 6.007 11.96 11.96 0 0 0-2.633 7.498 12.01 12.01 0 0 0 5.991 10.389 11.9 11.9 0 0 0 5.992 1.611 23.85 23.85 0 0 1 15.837 6 24 24 0 0 1 3.967 4.495A23.9 23.9 0 0 1 59.93 72H47.95a11.97 11.97 0 0 0-2.634-7.258 11.96 11.96 0 0 0-9.35-4.502c-2.067 0-4.075-.264-5.99-.759"/><defs><linearGradient id="paint0_linear_7996_40361" x1="60" x2="12" y1="36" y2="36" gradientUnits="userSpaceOnUse"><stop stop-color="#2148e4"/><stop offset="1" stop-color="#80e8ff"/></linearGradient><linearGradient id="paint1_linear_7996_40361" x1="60" x2="12" y1="36" y2="36" gradientUnits="userSpaceOnUse"><stop stop-color="#2148e4"/><stop offset="1" stop-color="#80e8ff"/></linearGradient></defs></svg>
